X:423
T:Reel 423
M:4/4
K:Cmaj
L:1/8
EF|GCEC DB,G,F|GCEC D2BA|GCEC DB,G,B,|CEDB, C2EF|GCEC DB,G,B,|GCEC F2ED|GDEc dBcA|GEFD C2||Bc|dcBc defd|gefd c2Gc|dcde fedc|dgga Bcdf|defe fded|cedc BGGF|E2EC DEFD|GEFD C2|
